app/images/logo.svg

<?xml version="1.0" encoding="UTF-8" standalone="no"?>
<svg width="281px" height="31px" viewBox="0 0 281 31" version="1.1" xmlns="http://www.w3.org/2000/svg" xmlns:xlink="http://www.w3.org/1999/xlink" xmlns:sketch="http://www.bohemiancoding.com/sketch/ns">
    <!-- Generator: Sketch 3.4 (15588) - http://www.bohemiancoding.com/sketch -->
    <title>Group</title>
    <desc>Created with Sketch.</desc>
    <defs></defs>
    <g id="Page-1" stroke="none" stroke-width="1" fill="none" fill-rule="evenodd" sketch:type="MSPage">
        <g id="Group" sketch:type="MSLayerGroup">
            <path d="M10.5899749,31 L14.0699678,31 L14.0699678,10.3000419 L10.5899749,10.3000419 L10.5899749,18.7300249 L3.80998863,18.7300249 L3.80998863,10.3000419 L0.329995683,10.3000419 L0.329995683,31 L3.80998863,31 L3.80998863,21.5800191 L10.5899749,21.5800191 L10.5899749,31 Z" id="НЕЧЕТН" fill="#002B36" sketch:type="MSShapeGroup"></path>
            <path d="M23.0699496,12.9400366 L31.6499322,12.9400366 L32.0399314,10.3000419 L19.5899567,10.3000419 L19.5899567,31 L32.2199311,31 L32.2199311,28.3600054 L23.0699496,28.3600054 L23.0699496,21.7900187 L30.5699344,21.7900187 L30.5699344,19.180024 L23.0699496,19.180024 L23.0699496,12.9400366 Z" id="Path" fill="#002B36" sketch:type="MSShapeGroup"></path>
            <path d="M46.5899019,10.3000419 L46.5899019,20.3200216 C45.6899038,21.1900199 44.4299063,21.8800185 42.5399101,21.8800185 C40.139915,21.8800185 38.9099175,20.7100209 38.9099175,18.0100263 L38.9099175,10.3000419 L35.4299246,10.3000419 L35.4299246,18.190026 C35.4299246,22.2700177 37.8299197,24.6700128 41.609912,24.6700128 C43.619908,24.6700128 45.0299051,24.1300139 46.5899019,22.9900162 L46.5899019,31 L50.0698949,31 L50.0698949,10.3000419 L46.5899019,10.3000419 Z" id="Path" fill="#002B36" sketch:type="MSShapeGroup"></path>
            <path d="M59.0698766,12.9400366 L67.6498593,12.9400366 L68.0398585,10.3000419 L55.5898837,10.3000419 L55.5898837,31 L68.2198581,31 L68.2198581,28.3600054 L59.0698766,28.3600054 L59.0698766,21.7900187 L66.5698614,21.7900187 L66.5698614,19.180024 L59.0698766,19.180024 L59.0698766,12.9400366 Z" id="Path" fill="#002B36" sketch:type="MSShapeGroup"></path>
            <path d="M80.9098324,13.1200362 L86.8798203,13.1200362 L87.2398196,10.3000419 L71.1898521,10.3000419 L71.1898521,13.1200362 L77.4298394,13.1200362 L77.4298394,31 L80.9098324,31 L80.9098324,13.1200362 Z" id="Path" fill="#002B36" sketch:type="MSShapeGroup"></path>
            <path d="M101.589793,31 L105.069785,31 L105.069785,10.3000419 L101.589793,10.3000419 L101.589793,18.7300249 L94.8098062,18.7300249 L94.8098062,10.3000419 L91.3298133,10.3000419 L91.3298133,31 L94.8098062,31 L94.8098062,21.5800191 L101.589793,21.5800191 L101.589793,31 Z" id="Path" fill="#002B36" sketch:type="MSShapeGroup"></path>
            <path d="M281,10 L268.070026,10 L268.070026,30.6999581 L271.550019,30.6999581 L271.550019,12.8799942 L280.640001,12.8799942 L281,10 Z" id="Path" fill="#002B36" sketch:type="MSShapeGroup"></path>
            <path d="M264.109998,16.5099868 C264.109998,12.0999957 261.020004,10 255.800015,10 L250.070026,10 L250.070026,30.6999581 L253.520019,30.6999581 L253.520019,23.319973 L256.040014,23.319973 C260.780004,23.319973 264.109998,21.339977 264.109998,16.5099868 L264.109998,16.5099868 Z M260.480005,16.5099868 C260.480005,19.6599804 258.680009,20.6799784 256.070014,20.6799784 L253.520019,20.6799784 L253.520019,12.6099947 L256.040014,12.6099947 C258.710009,12.6099947 260.480005,13.6899925 260.480005,16.5099868 L260.480005,16.5099868 Z" id="Path" fill="#002B36" sketch:type="MSShapeGroup"></path>
            <path d="M236.550019,12.6399946 L245.130002,12.6399946 L245.520001,10 L233.070026,10 L233.070026,30.6999581 L245.700001,30.6999581 L245.700001,28.0599634 L236.550019,28.0599634 L236.550019,21.4899767 L244.050004,21.4899767 L244.050004,18.879982 L236.550019,18.879982 L236.550019,12.6399946 Z" id="Path" fill="#002B36" sketch:type="MSShapeGroup"></path>
            <path d="M228.199998,24.7299701 C228.199998,21.3099771 225.710003,20.1099795 223.460007,19.7199803 C225.440003,19.2699812 227.299999,17.8299841 227.299999,15.2499894 C227.299999,11.1999976 223.610007,10 219.740015,10 L214.070026,10 L214.070026,30.6999581 L220.130014,30.6999581 C224.210006,30.6999581 228.199998,29.3499608 228.199998,24.7299701 L228.199998,24.7299701 Z M223.760007,15.5199888 C223.760007,17.6799844 222.560009,18.5799826 220.250014,18.5799826 L217.550019,18.5799826 L217.550019,12.6099947 L220.040014,12.6099947 C222.410009,12.6099947 223.760007,13.4199931 223.760007,15.5199888 L223.760007,15.5199888 Z M224.570005,24.7299701 C224.570005,27.4899646 222.350009,27.9999635 220.370013,27.9999635 L217.550019,27.9999635 L217.550019,21.1899773 L220.490013,21.1899773 C222.800009,21.1899773 224.570005,21.9399758 224.570005,24.7299701 L224.570005,24.7299701 Z" id="В" fill="#002B36" sketch:type="MSShapeGroup"></path>
            <path d="M203.790007,12.8199943 L209.759994,12.8199943 L210.119994,10 L194.070026,10 L194.070026,12.8199943 L200.310014,12.8199943 L200.310014,30.6999581 L203.790007,30.6999581 L203.790007,12.8199943 Z" id="Path" fill="#002B36" sketch:type="MSShapeGroup"></path>
            <path d="M182.550019,12.6399946 L191.130002,12.6399946 L191.520001,10 L179.070026,10 L179.070026,30.6999581 L191.700001,30.6999581 L191.700001,28.0599634 L182.550019,28.0599634 L182.550019,21.4899767 L190.050004,21.4899767 L190.050004,18.879982 L182.550019,18.879982 L182.550019,12.6399946 Z" id="Path" fill="#002B36" sketch:type="MSShapeGroup"></path>
            <path d="M170.230004,10 L170.230004,20.0199797 C169.330005,20.8899779 168.070008,21.5799765 166.180012,21.5799765 C163.780017,21.5799765 162.550019,20.4099789 162.550019,17.7099844 L162.550019,10 L159.070026,10 L159.070026,17.889984 C159.070026,21.9699757 161.470021,24.3699709 165.250014,24.3699709 C167.26001,24.3699709 168.670007,23.829972 170.230004,22.6899743 L170.230004,30.6999581 L173.709997,30.6999581 L173.709997,10 L170.230004,10 Z" id="Path" fill="#002B36" sketch:type="MSShapeGroup"></path>
            <path d="M133,30.6999581 L137.229991,30.6999581 L143.979978,13.1799936 C143.679978,15.3099892 143.409979,18.0999836 143.409979,21.5799765 L143.409979,30.6999581 L146.739972,30.6999581 L146.739972,10 L142.599981,10 L135.729994,27.6399643 C136.089994,25.2699691 136.329993,23.0499736 136.329993,19.1499815 L136.329993,10 L133,10 L133,30.6999581 Z" id="И" fill="#002B36" sketch:type="MSShapeGroup"></path>
            <path d="M114.179994,10 L111,10 L111,30.6999581 L115.499991,30.6999581 C120.149981,30.6999581 122.969976,28.5399624 122.969976,23.8899719 C122.969976,19.6299805 120.389981,17.379985 115.439991,17.379985 L114.179994,17.379985 L114.179994,10 Z M127.379967,10 L124.199973,10 L124.199973,30.6999581 L127.379967,30.6999581 L127.379967,10 Z M115.76999,19.86998 C118.349985,19.86998 119.669982,21.2199773 119.669982,23.9199718 C119.669982,27.0399655 118.229985,28.1199633 115.70999,28.1199633 L114.179994,28.1199633 L114.179994,19.86998 L115.76999,19.86998 Z" id="Ы" fill="#002B36" sketch:type="MSShapeGroup"></path>
            <circle id="Oval-11" fill="#93A1A1" sketch:type="MSShapeGroup" cx="7" cy="3" r="3"></circle>
            <circle id="Oval-11-Copy" fill="#586E75" sketch:type="MSShapeGroup" cx="53" cy="3" r="3"></circle>
            <circle id="Oval-11-Copy-4" fill="#93A1A1" sketch:type="MSShapeGroup" cx="113" cy="3" r="3"></circle>
            <ellipse id="Oval-11-Copy-8" fill="#93A1A1" sketch:type="MSShapeGroup" cx="238" cy="3" rx="3" ry="3"></ellipse>
            <ellipse id="Oval-11-Copy-12" fill="#93A1A1" sketch:type="MSShapeGroup" cx="220" cy="3" rx="3" ry="3"></ellipse>
            <circle id="Oval-11-Copy-2" fill="#93A1A1" sketch:type="MSShapeGroup" cx="62" cy="3" r="3"></circle>
            <circle id="Oval-11-Copy-5" fill="#93A1A1" sketch:type="MSShapeGroup" cx="122" cy="3" r="3"></circle>
            <ellipse id="Oval-11-Copy-9" fill="#93A1A1" sketch:type="MSShapeGroup" cx="247" cy="3" rx="3" ry="3"></ellipse>
            <ellipse id="Oval-11-Copy-13" fill="#93A1A1" sketch:type="MSShapeGroup" cx="229" cy="3" rx="3" ry="3"></ellipse>
            <circle id="Oval-11-Copy-3" fill="#586E75" sketch:type="MSShapeGroup" cx="71" cy="3" r="3"></circle>
            <circle id="Oval-11-Copy-6" fill="#93A1A1" sketch:type="MSShapeGroup" cx="131" cy="3" r="3"></circle>
            <ellipse id="Oval-11-Copy-10" fill="#93A1A1" sketch:type="MSShapeGroup" cx="256" cy="3" rx="3" ry="3"></ellipse>
            <circle id="Oval-11-Copy-7" fill="#93A1A1" sketch:type="MSShapeGroup" cx="149" cy="3" r="3"></circle>
            <ellipse id="Oval-11-Copy-11" fill="#93A1A1" sketch:type="MSShapeGroup" cx="274" cy="3" rx="3" ry="3"></ellipse>
            <circle id="Oval-11-Copy-4" fill="#586E75" sketch:type="MSShapeGroup" cx="140" cy="3" r="3"></circle>
            <ellipse id="Oval-11-Copy-4-Copy" fill="#93A1A1" sketch:type="MSShapeGroup" cx="265" cy="3" rx="3" ry="3"></ellipse>
        </g>
    </g>
</svg>

<svg width="281" height="31" viewBox="0 0 281 31" xmlns="http://www.w3.org/2000/svg"><title>Group</title><g fill="none" fill-rule="evenodd"><path d="M10.59 31h3.48V10.3h-3.48v8.43H3.81V10.3H.33V31h3.48v-9.42h6.78V31zM23.07 12.94h8.58l.39-2.64H19.59V31h12.63v-2.64h-9.15v-6.57h7.5v-2.61h-7.5v-6.24zM46.59 10.3v10.02c-.9.87-2.16 1.56-4.05 1.56-2.4 0-3.63-1.17-3.63-3.87V10.3h-3.48v7.89c0 4.08 2.4 6.48 6.18 6.48 2.01 0 3.42-.54 4.98-1.68V31h3.48V10.3h-3.48zM59.07 12.94h8.58l.39-2.64H55.59V31h12.63v-2.64h-9.15v-6.57h7.5v-2.61h-7.5v-6.24zM80.91 13.12h5.97l.36-2.82H71.19v2.82h6.24V31h3.48V13.12zM101.59 31h3.48V10.3h-3.48v8.43h-6.78V10.3h-3.48V31h3.48v-9.42h6.78V31zM281 10h-12.93v20.7h3.48V12.88h9.09L281 10zM264.11 16.51c0-4.41-3.09-6.51-8.31-6.51h-5.73v20.7h3.45v-7.38h2.52c4.74 0 8.07-1.98 8.07-6.81zm-3.63 0c0 3.15-1.8 4.17-4.41 4.17h-2.55v-8.07h2.52c2.67 0 4.44 1.08 4.44 3.9zM236.55 12.64h8.58l.39-2.64h-12.45v20.7h12.63v-2.64h-9.15v-6.57h7.5v-2.61h-7.5v-6.24zM228.2 24.73c0-3.42-2.49-4.62-4.74-5.01 1.98-.45 3.84-1.89 3.84-4.47 0-4.05-3.69-5.25-7.56-5.25h-5.67v20.7h6.06c4.08 0 8.07-1.35 8.07-5.97zm-4.44-9.21c0 2.16-1.2 3.06-3.51 3.06h-2.7v-5.97h2.49c2.37 0 3.72.81 3.72 2.91zm.81 9.21c0 2.76-2.22 3.27-4.2 3.27h-2.82v-6.81h2.94c2.31 0 4.08.75 4.08 3.54zM203.79 12.82h5.97l.36-2.82h-16.05v2.82h6.24V30.7h3.48V12.82zM182.55 12.64h8.58l.39-2.64h-12.45v20.7h12.63v-2.64h-9.15v-6.57h7.5v-2.61h-7.5v-6.24zM170.23 10v10.02c-.9.87-2.16 1.56-4.05 1.56-2.4 0-3.63-1.17-3.63-3.87V10h-3.48v7.89c0 4.08 2.4 6.48 6.18 6.48 2.01 0 3.42-.54 4.98-1.68v8.01h3.48V10h-3.48zM133 30.7h4.23l6.75-17.52c-.3 2.13-.57 4.92-.57 8.4v9.12h3.33V10h-4.14l-6.87 17.64c.36-2.37.6-4.59.6-8.49V10H133v20.7zM114.18 10H111v20.7h4.5c4.65 0 7.47-2.16 7.47-6.81 0-4.26-2.58-6.51-7.53-6.51h-1.26V10zm13.2 0h-3.18v20.7h3.18V10zm-11.61 9.87c2.58 0 3.9 1.35 3.9 4.05 0 3.12-1.44 4.2-3.96 4.2h-1.53v-8.25h1.59z" fill="#002B36"/><circle fill="#93A1A1" cx="7" cy="3" r="3"/><circle fill="#586E75" cx="53" cy="3" r="3"/><circle fill="#93A1A1" cx="113" cy="3" r="3"/><ellipse fill="#93A1A1" cx="238" cy="3" rx="3" ry="3"/><ellipse fill="#93A1A1" cx="220" cy="3" rx="3" ry="3"/><circle fill="#93A1A1" cx="62" cy="3" r="3"/><circle fill="#93A1A1" cx="122" cy="3" r="3"/><ellipse fill="#93A1A1" cx="247" cy="3" rx="3" ry="3"/><ellipse fill="#93A1A1" cx="229" cy="3" rx="3" ry="3"/><circle fill="#586E75" cx="71" cy="3" r="3"/><circle fill="#93A1A1" cx="131" cy="3" r="3"/><ellipse fill="#93A1A1" cx="256" cy="3" rx="3" ry="3"/><circle fill="#93A1A1" cx="149" cy="3" r="3"/><ellipse fill="#93A1A1" cx="274" cy="3" rx="3" ry="3"/><circle fill="#586E75" cx="140" cy="3" r="3"/><ellipse fill="#93A1A1" cx="265" cy="3" rx="3" ry="3"/></g></svg>
